X:1098
T:Gentle Maiden, The
C:Joe Buchanan's Scottish Tome - Page 627.1
I:627 1
Z:Carl Allison
C:Pride of erin Waltz
R:Folk
L:1/4
M:3/4
K:G
D | "G"G>A G | "D"F E D | "G"d3 | "C"e f g | "G"d>c B | "A"(A2 G) | "C"E3- | E2 F |
"G"G>A G | "D"F E D | "G"d3 | "C"e f g | "G"d>c B | "D7"(A2 G) | "G"G3- | G2 d |
"G"d>e f | "C"g2 g | g3 | "C"g f e | "G"d>c B | "A"(A2 G) | "C"E3- | E2 F |
"G"G>A G | "D"F E D | "G"d3 | "C"e f g | "G"d>c B | "D"(A2 G) | "G"G3- | G2 :|

